assets/Flower playing cards/Flat/flower_playing_cards_flat.svg

<svg width="32" height="32" viewBox="0 0 32 32" fill="none" xmlns="http://www.w3.org/2000/svg">
<path d="M5 4C5 2.89543 5.89543 2 7 2H25C26.1046 2 27 2.89543 27 4V28C27 29.1046 26.1046 30 25 30H7C5.89543 30 5 29.1046 5 28V4Z" fill="#F70A8D"/>
<path d="M20.5 10.5C20.5 12.9853 18.4853 15 16 15C13.5147 15 11.5 12.9853 11.5 10.5C11.5 8.01472 13.5147 6 16 6C18.4853 6 20.5 8.01472 20.5 10.5Z" fill="white"/>
<path d="M9 4C7.89543 4 7 4.89543 7 6V26C7 27.1046 7.89543 28 9 28H23C24.1046 28 25 27.1046 25 26V6C25 4.89543 24.1046 4 23 4H9ZM10 5H22C23.1046 5 24 5.89543 24 7V19.1138C23.4688 19.0389 22.9243 19 22.3699 19C20.9615 19 19.6178 19.2509 18.3906 19.706C17.1348 16.9476 14.0752 15 10.5 15C9.62995 15 8.79042 15.1153 8 15.3296V7C8 5.89543 8.89543 5 10 5Z" fill="#533566"/>
</svg>

<svg xmlns="http://www.w3.org/2000/svg" width="32" height="32" fill="none"><path fill="#F70A8D" d="M5 4a2 2 0 0 1 2-2h18a2 2 0 0 1 2 2v24a2 2 0 0 1-2 2H7a2 2 0 0 1-2-2V4Z"/><path fill="#fff" d="M20.5 10.5a4.5 4.5 0 1 1-9 0 4.5 4.5 0 0 1 9 0Z"/><path fill="#533566" d="M9 4a2 2 0 0 0-2 2v20a2 2 0 0 0 2 2h14a2 2 0 0 0 2-2V6a2 2 0 0 0-2-2H9Zm1 1h12a2 2 0 0 1 2 2v12.114A11.674 11.674 0 0 0 22.37 19c-1.409 0-2.752.25-3.98.706C17.136 16.948 14.076 15 10.5 15c-.87 0-1.71.115-2.5.33V7a2 2 0 0 1 2-2Z"/></svg>
